!!!COM: Leoš [Leo Eugen] Janáček
!!!OTL: [T133_Jan-w16p12m15-21]
**kern	**kern	**dynam
*grp:A	*grp:A	*
*part1	*part1	*part1
*staff2	*staff1	*
*I"Piano	*	*
*I'Pno.	*	*
*clefF4	*clefG2	*
*k[f#c#g#d#]	*k[f#c#g#d#]	*
*E:	*E:	*
*M4/8	*M4/8	*
=1	=1	=1
*^	*	*
!	!	!LO:TX:t=[Con moto [quarter]=184]	!
!	!	!LO:TX:a:t=2	!LO:DY:t=[ %s ]
*ped	*	*	*
4ryy	8E-XL	2b-X	4ryy
.	8G-X	.	.
!LO:T:b	!	!	!
[4G-	8G-	.	.
!	!LO:T:a	!	!
.	[8e-XJ	.	.
=2	=2	=2	=2
!	!	!LO:TX:a:t=1	!
2G-] 2e-]\	2ryy	8e-XL	.
!	!	!LO:TX:a:t=2	!
.	.	8b-X	.
!	!	!LO:TX:a:t=1	!
.	.	8ee-X	.
.	.	8eee-XJ	.
*v	*v	*	*
=3:||	=3:||	=3:||
*k[]	*k[]	*
*C:	*C:	*
*^	*	*
*	*	*grp:B	*
!	!LO:TX:a:i:t=espress.	!LO:TX:a:B:t=Meno mosso	!
*ped	*	*	*
!	!	!LO:TX:a:t=1	!
4ryy	8E-XL	10ryy	.
!	!	!LO:TX:a:t=2	!
.	.	10ryy	.
!	!LO:TX:b:t=2	!	!
.	8c-X	.	.
!	!	!LO:TX:a:t=1	!
.	.	10ryy	.
!LO:T:b	!LO:TX:b:t=4	!	!
[4c-	8c-	.	.
.	.	10ryy	.
!	!LO:T:a	!	!
.	[8gnJ	.	.
.	.	10ryy	.
=4	=4	=4	=4
*	*	*grp:A	*
!	!	!LO:TX:a:t=3	!
2g] 2c-]\	2ryy	(8fnL	.
.	.	8d-XJ	.
.	.	4e-X)	.
=5	=5	=5	=5
*ped	*	*grp:B	*
!	!	!LO:TX:a:t=1	!
8E-XL\	4ryy	10ryy	.
!	!	!LO:TX:a:t=2	!
.	.	10ryy	.
!LO:TX:b:t=2	!	!	!
8c-X	.	.	.
!	!	!LO:TX:a:t=1	!
.	.	10ryy	.
8c-	4c-/	.	.
.	.	10ryy	.
8e-XJ	.	.	.
.	.	10ryy	.
*v	*v	*	*
=6	=6	=6
*	*^	*
*	*Xtuplet	*	*
!	!	!LO:TX:a:t=1	!
8AA-XL	5ryyyyy	10ryy	.
!	!	!LO:TX:a:t=3	!
.	.	10ryy	.
!LO:TX:b:t=2	!	!	!
8F-X	.	.	.
!	!LO:TX:a:t=2	!	!
!	!LO:T:b	!	!
!	!LO:N:vis=5	!	!
.	5.ryy	10ryy	.
8F-	.	.	.
!	!	!LO:TX:a:t=4	!
!	!	!LO:T:a	!
.	.	10ryy	.
8c-XJ	.	.	.
.	.	10ryy	.
=7	=7	=7	-7
(8B-XL	2ryy	2ryyyy	.
8G-XJ	.	.	.
4A-X)	.	.	.
*	*v	*v	*
=	=	=
*-	*-	*-
!!!system-decoration: [({(s1,s2)})]
!!!EED:Jason Lee
!!!EEV:2021/10/05
